svgs/duotone/chart-area.svg

<svg xmlns="http://www.w3.org/2000/svg" viewBox="0 0 512 512"><!--! Font Awesome Pro 6.4.2 by @fontawesome - https://fontawesome.com License - https://fontawesome.com/license (Commercial License) Copyright 2023 Fonticons, Inc. --><path class="fa-primary" style="fill:var(--fa-primary-color,inherit);opacity:var(--fa-primary-opacity,1);" d="M448 352H160c-17.7 0-32-14.3-32-32V236c0-7.8 2.8-15.2 7.9-21.1l79.4-90.8c13-14.8 36.1-14.5 48.7 .6l39.2 47c9 10.8 25.4 11.6 35.4 1.6l21-21c13.2-13.2 34.8-12.4 46.9 1.8L472.3 231c5 5.8 7.7 13.2 7.7 20.8V320c0 17.7-14.3 32-32 32z"/><path class="fa-secondary" style="fill:var(--fa-secondary-color,inherit);opacity:var(--fa-secondary-opacity,.4);" d="M32 32c17.7 0 32 14.3 32 32V400c0 8.8 7.2 16 16 16H480c17.7 0 32 14.3 32 32s-14.3 32-32 32H80c-44.2 0-80-35.8-80-80V64C0 46.3 14.3 32 32 32z"/></svg>

<svg xmlns="http://www.w3.org/2000/svg" viewBox="0 0 512 512"><!--! Font Awesome Pro 6.1.1 by @fontawesome - https://fontawesome.com License - https://fontawesome.com/license (Commercial License) Copyright 2022 Fonticons, Inc. --><defs><style>.fa-secondary{opacity:.4}</style></defs><path class="fa-primary" d="M448 352H160C142.3 352 128 337.7 128 319.1V236C128 228.3 130.8 220.8 135.9 214.1L215.3 124.2C228.3 109.4 251.4 109.7 263.1 124.8L303.2 171.8C312.2 182.7 328.6 183.4 338.6 173.4L359.6 152.4C372.7 139.3 394.4 140.1 406.5 154.2L472.3 231C477.3 236.8 480 244.2 480 251.8V320C480 337.7 465.7 352 448 352L448 352z"/><path class="fa-secondary" d="M32 32C49.67 32 64 46.33 64 64V400C64 408.8 71.16 416 80 416H480C497.7 416 512 430.3 512 448C512 465.7 497.7 480 480 480H80C35.82 480 0 444.2 0 400V64C0 46.33 14.33 32 32 32z"/></svg>
